static/img/kroki/159addedb1d20027857ce8795741c9fd.svg

<?xml version="1.0" encoding="us-ascii" standalone="no"?><svg xmlns="http://www.w3.org/2000/svg" xmlns:xlink="http://www.w3.org/1999/xlink" contentStyleType="text/css" height="152px" preserveAspectRatio="none" style="width:540px;height:152px;" version="1.1" viewBox="0 0 540 152" width="540px" zoomAndPan="magnify"><defs/><g><!--class azure_machine_learning_registry_environment_container--><g id="elem_azure_machine_learning_registry_environment_container"><rect codeLine="23" fill="#3D176E" height="39.7891" id="azure_machine_learning_registry_environment_container" rx="2.5" ry="2.5" style="stroke:#000D19;stroke-width:0.5;" width="526" x="7" y="7"/><ellipse cx="22" cy="26.8945" fill="#ADD1B2" rx="11" ry="11" style="stroke:#181818;stroke-width:1.0;"/><path d="M24.9688,32.5352 Q24.3906,32.832 23.75,32.9727 Q23.1094,33.1289 22.4063,33.1289 Q19.9063,33.1289 18.5781,31.4883 Q17.2656,29.832 17.2656,26.707 Q17.2656,23.582 18.5781,21.9258 Q19.9063,20.2695 22.4063,20.2695 Q23.1094,20.2695 23.75,20.4258 Q24.4063,20.582 24.9688,20.8789 L24.9688,23.5977 Q24.3438,23.0195 23.75,22.7539 Q23.1563,22.4727 22.5313,22.4727 Q21.1875,22.4727 20.5,23.5508 Q19.8125,24.6133 19.8125,26.707 Q19.8125,28.8008 20.5,29.8789 Q21.1875,30.9414 22.5313,30.9414 Q23.1563,30.9414 23.75,30.6758 Q24.3438,30.3945 24.9688,29.8164 L24.9688,32.5352 Z " fill="#000000"/><text fill="#D9B8FF" font-family="Helvetica" font-size="17" lengthAdjust="spacing" textLength="484" x="41" y="32.7798">azure_machine_learning_registry_environment_container</text></g><!--class azure_machine_learning_registry_environment_version--><g id="elem_azure_machine_learning_registry_environment_version"><rect codeLine="26" fill="#3D176E" height="39.7891" id="azure_machine_learning_registry_environment_version" rx="2.5" ry="2.5" style="stroke:#000D19;stroke-width:0.5;" width="508" x="16" y="106.79"/><ellipse cx="31" cy="126.6845" fill="#ADD1B2" rx="11" ry="11" style="stroke:#181818;stroke-width:1.0;"/><path d="M33.9688,132.3252 Q33.3906,132.622 32.75,132.7627 Q32.1094,132.9189 31.4063,132.9189 Q28.9063,132.9189 27.5781,131.2783 Q26.2656,129.622 26.2656,126.497 Q26.2656,123.372 27.5781,121.7158 Q28.9063,120.0595 31.4063,120.0595 Q32.1094,120.0595 32.75,120.2158 Q33.4063,120.372 33.9688,120.6689 L33.9688,123.3877 Q33.3438,122.8095 32.75,122.5439 Q32.1563,122.2627 31.5313,122.2627 Q30.1875,122.2627 29.5,123.3408 Q28.8125,124.4033 28.8125,126.497 Q28.8125,128.5908 29.5,129.6689 Q30.1875,130.7314 31.5313,130.7314 Q32.1563,130.7314 32.75,130.4658 Q33.3438,130.1845 33.9688,129.6064 L33.9688,132.3252 Z " fill="#000000"/><text fill="#D9B8FF" font-family="Helvetica" font-size="17" lengthAdjust="spacing" textLength="466" x="50" y="132.5698">azure_machine_learning_registry_environment_version</text></g><!--link azure_machine_learning_registry_environment_container to azure_machine_learning_registry_environment_version--><g id="link_azure_machine_learning_registry_environment_container_azure_machine_learning_registry_environment_version"><path codeLine="29" d="M270,47.22 C270,64.36 270,83.27 270,100.41 " fill="none" id="azure_machine_learning_registry_environment_container-to-azure_machine_learning_registry_environment_version" style="stroke:#1A83AF;stroke-width:2.0;"/><polygon fill="#1A83AF" points="270,106.41,274,97.41,270,101.41,266,97.41,270,106.41" style="stroke:#1A83AF;stroke-width:2.0;"/></g><!--SRC=[dPDVQy8m5CNV-oa2FWljP5DV1fqWsukCkRSnohMviS7cfjn4HSU- -zgvZQpr3_YQyyizvroIGaiKQ2g_4mRD0jb5RgMf0WOZKcQxdTZIikWf1MemR8jJI_uYC0E3uX7B3NgTGvjuBNI-8dHEt0JI0-Ih9TiroSDupq2kbf1yG4rAS2xrdlLYxJ488yUBaL9jiZsqDv39y0uxc6M9_8F4SIoJSHkvQ7MsznynrtiKIRYqcVNOYTcn-AREfco886IdwAz-CkCpIAbfAMw3ivT39YRaV-Vp0gJTDhI2qeKspYEZzRiA9vrME1v9DJmAFvs2exnPdO3zcZ4pa1UQC2iHc6htZ76fdUTTXhJHRCdKhoNBwvQWcyWVKVHvnO1D_IcqfSFrwvpxRxqa7GtIwNl__Xhlw0i0]--></g></svg>

<svg xmlns="http://www.w3.org/2000/svg" width="540" height="152" viewBox="0 0 540 152"><rect width="526" height="39.789" x="7" y="7" fill="#3D176E" rx="2.5" ry="2.5" style="stroke:#000d19;stroke-width:.5"/><circle cx="22" cy="26.895" r="11" fill="#ADD1B2" style="stroke:#181818;stroke-width:1"/><path d="M24.969 32.535q-.578.297-1.219.438-.64.156-1.344.156-2.5 0-3.828-1.64-1.312-1.657-1.312-4.782t1.312-4.781q1.328-1.656 3.828-1.656.703 0 1.344.156.656.156 1.219.453v2.719q-.625-.578-1.219-.844-.594-.281-1.219-.281-1.343 0-2.031 1.078-.687 1.062-.687 3.156t.687 3.172q.688 1.062 2.031 1.062.625 0 1.219-.265.594-.281 1.219-.86z"/><text x="41" y="32.78" fill="#D9B8FF" font-family="Helvetica" font-size="17" textLength="484">azure_machine_learning_registry_environment_container</text><rect width="508" height="39.789" x="16" y="106.79" fill="#3D176E" rx="2.5" ry="2.5" style="stroke:#000d19;stroke-width:.5"/><circle cx="31" cy="126.684" r="11" fill="#ADD1B2" style="stroke:#181818;stroke-width:1"/><path d="M33.969 132.325q-.578.297-1.219.438-.64.156-1.344.156-2.5 0-3.828-1.64-1.312-1.657-1.312-4.782t1.312-4.781q1.328-1.656 3.828-1.656.703 0 1.344.156.656.156 1.219.453v2.719q-.625-.579-1.219-.844-.594-.281-1.219-.281-1.343 0-2.031 1.078-.687 1.062-.687 3.156t.687 3.172q.688 1.062 2.031 1.062.625 0 1.219-.265.594-.281 1.219-.86z"/><text x="50" y="132.57" fill="#D9B8FF" font-family="Helvetica" font-size="17" textLength="466">azure_machine_learning_registry_environment_version</text><path fill="none" d="M270 47.22v53.19" style="stroke:#1a83af;stroke-width:2"/><path fill="#1A83AF" d="m270 106.41 4-9-4 4-4-4z" style="stroke:#1a83af;stroke-width:2"/></svg>
